src/components/navbar/assets/org.svg

<svg width="16" height="16" viewBox="0 0 16 16"  xmlns="http://www.w3.org/2000/svg">
    <path d="M14.3637 9.90909H13.091V8C13.091 7.83123 13.091 7.36364 13.091 7.36364C13.091 7.36364 12.6234 7.36364 12.4546 7.36364H8.63643V6.09091H9.90916C10.0779 6.09091 10.5455 6.09091 10.5455 6.09091C10.5455 6.09091 10.5455 5.62332 10.5455 5.45455V1.63636C10.5455 1.46759 10.5455 1 10.5455 1C10.5455 1 10.0779 1 9.90916 1H6.09098C5.9222 1 5.45461 1 5.45461 1C5.45461 1 5.45461 1.46759 5.45461 1.63636V5.45455C5.45461 5.62332 5.45461 6.09091 5.45461 6.09091C5.45461 6.09091 5.9222 6.09091 6.09098 6.09091H7.3637V7.36364H3.54552C3.37675 7.36364 2.90916 7.36364 2.90916 7.36364C2.90916 7.36364 2.90916 7.83123 2.90916 8V9.90909H1.63643C1.46766 9.90909 1 9.90909 1 9.90909C1 9.90909 1.00007 10.3767 1.00007 10.5455V14.3636C1.00007 14.5324 1.00007 15 1.00007 15C1.00007 15 1.46766 15 1.63643 15H5.45461C5.62339 15 6.09098 15 6.09098 15C6.09098 15 6.09098 14.5324 6.09098 14.3636V10.5455C6.09098 10.3767 6.09098 9.90909 6.09098 9.90909C6.09098 9.90909 5.62339 9.90909 5.45461 9.90909H4.18188V8.63636H11.8182V9.90909H10.5455C10.3767 9.90909 9.90916 9.90909 9.90916 9.90909C9.90916 9.90909 9.90916 10.3767 9.90916 10.5455V14.3636C9.90916 14.5324 9.90916 15 9.90916 15C9.90916 15 10.3767 15 10.5455 15H14.3637C14.5325 15 15.0001 15 15.0001 15C15.0001 15 15.0001 14.5324 15.0001 14.3636V10.5455C15.0001 10.3767 15.0001 9.90909 15.0001 9.90909C15.0001 9.90909 14.5325 9.90909 14.3637 9.90909ZM4.81825 11.1818V13.7273H2.27279V11.1818H4.81825ZM6.72734 4.81818V2.27273H9.27279V4.81818H6.72734ZM13.7273 13.7273H11.1819V11.1818H13.7273V13.7273Z"/>
    </svg>

<svg viewBox="0 0 16 16" xmlns="http://www.w3.org/2000/svg">
    <path d="M14.36 9.9H13.1V7.37H8.64V6.1H10.55V1h-5.1v5.09H7.36v1.27H2.91V9.9H1V15h5.09V9.91H4.18V8.64h7.64V9.9H9.9V15H15V9.91h-.64Zm-9.54 1.28v2.55H2.27v-2.55h2.55Zm1.9-6.36V2.27h2.55v2.55H6.73Zm7 8.9h-2.54v-2.54h2.55v2.55Z" />
</svg>
